X:80
T:Gallant poacher - Parsons
%%VWML:SBG-1-2-26-0
F:http://www.vwml.org/record/SBG/1/2/26
Z:Original Sibelius transcriptions by M. & S. Graebe
L:1/8
M:6/8
I:linebreak $
K:Eb
V:1 treble nm="P1"
V:2 treble 
V:1
 E | E2 G G2 B | B2 A F2 F | F2 G F2 G | A2 G E2 E | E2 G G2 B |$ B2 A F2 F | F2 E G2 F | E3 E2 | %9
 E | B3 c2 B | B3 G2 A |$ B3 c2 B | B3- B2 A | G2 G G2 G | B2 A A2 G | F2 E G2 F | %17
 !fermata!E4 x x | %18
T:Gallant poacher - Westaway
F:http://www.vwml.org/record/SBG/1/2/26
Z:Original Sibelius transcriptions by M. & S. Graebe
M:6/8
I:linebreak $
K:G
V:1 treble nm="P1"
V:1
 D2 | B2 B B2 c | d2 B c2 B | A2 A A2 B | c2 A B2 G | B2 B Bc d | e2 d B2 G | A2 A G2 E |$ %8
 D3- D2 A | A2 A A2 B | c2 B G2 B | B2 B B2 c | d2 ^c B2 G | B2 B B2 c | d2 B c2 B |$ A2 A A2 B | %16
 c2 B G2 G | B2 B Bc d | e2 d B2 D | EF G e2 d | (G3 G2) x | %21
T:Gallant poacher - Lillicrap
F:http://www.vwml.org/record/SBG/1/2/
Z:Original Sibelius transcriptions by M. & S. Graebe
M:6/8
I:linebreak $
K:A
V:1 treble nm="P1"
V:1
 A | c2 c c2 c | e2 e d2 c | B2 B B2 B | d2 c A2 A | c2 c c2 c | e2 e d2 c | Bc d f2 e |$ %8
 A3- A2 e | e2 f2 e c/d/ | e2 f2 e2- | e3 z2 d | c2 c c2 c | e2 e d2 c |$ B2 B B2 B | d2 c A2 A | %16
 c2 c c2 c | e2 e d2 c | Bc d f2 e | A3 A2 x | %20
T:Gallant poacher - Hard
F:http://www.vwml.org/record/SBG/1/2/26
Z:Original Sibelius transcriptions by M. & S. Graebe
M:6/8
I:linebreak $
K:G
V:1 treble nm="P1"
V:1
 A | F2 F F2 G | A2 G F2 G | E2 E E2 F | G2 F E2 A | F2 F F2 G | A2 G D2 D |$ FG A B2 A | %8
 D3- D2 F/G/ | A2 B2 A2- | A3 z2 F/G/ | A2 B2 A2- |$ A3 z2 A | F2 F F2 G | A2 G F2 G | E2 E E2 F | %16
 G2 F E2"_&c. as before" A | x6 | %18


